RASD/Images/SequenceDiagrams/User_Suspension_Rehabilitation.svg

<svg version="1.1" xmlns="http://www.w3.org/2000/svg" xmlns:xlink="http://www.w3.org/1999/xlink" width="691" height="576"><defs/><g><g/><g/><g/><g/><g/><g/><g/><g/><g/><g><rect fill="white" stroke="none" x="0" y="0" width="691" height="576"/></g><g><text fill="black" stroke="none" font-family="sans-serif" font-size="16.5pt" font-style="normal" font-weight="normal" text-decoration="normal" x="192.23769487358334" y="24.50280495" text-anchor="start" dominant-baseline="alphabetic">User suspension / rehabilitation</text></g><g/><g><path fill="none" stroke="black" paint-order="fill stroke markers" d=" M 45.16760165 128.80307802049998 L 45.16760165 576.3876484405" stroke-miterlimit="10" stroke-width="1.3612669416666667" stroke-dasharray="12.565541,5.445067766666667"/><path fill="none" stroke="black" paint-order="fill stroke markers" d=" M 351.0633470833333 128.80307802049998 L 351.0633470833333 576.3876484405" stroke-miterlimit="10" stroke-width="1.3612669416666667" stroke-dasharray="12.565541,5.445067766666667"/><path fill="none" stroke="black" paint-order="fill stroke markers" d=" M 626.9590925166667 128.80307802049998 L 626.9590925166667 576.3876484405" stroke-miterlimit="10" stroke-width="1.3612669416666667" stroke-dasharray="12.565541,5.445067766666667"/></g><g><g><path fill="white" stroke="black" paint-order="fill stroke markers" d=" M 54.478667531 59.70516806150002 A 9.311065881 9.311065881 0 1 1 54.47866287546745 59.69585699717086 M 45.16760165 69.01623394250002 L 45.16760165 88.94518196850002 M 33.406255274 76.20372339450002 L 56.928948026 76.20372339450002 M 45.16760165 88.94518196850002 L 33.406255274 107.56731373050002 M 45.16760165 88.94518196850002 L 56.928948026 107.56731373050002" stroke-miterlimit="10" stroke-width="2.7769845610000004" stroke-dasharray=""/></g><g><g/><text fill="black" stroke="none" font-family="sans-serif" font-size="11pt" font-style="normal" font-weight="normal" text-decoration="normal" x="8.167601650000002" y="123.90251703050001" text-anchor="start" dominant-baseline="alphabetic">Municipality</text></g><g><path fill="white" stroke="black" paint-order="fill stroke markers" d=" M 360.3744129643333 59.70516806150002 A 9.311065881 9.311065881 0 1 1 360.37440830880075 59.69585699717086 M 351.0633470833333 69.01623394250002 L 351.0633470833333 88.94518196850002 M 339.3020007073333 76.20372339450002 L 362.82469345933333 76.20372339450002 M 351.0633470833333 88.94518196850002 L 339.3020007073333 107.56731373050002 M 351.0633470833333 88.94518196850002 L 362.82469345933333 107.56731373050002" stroke-miterlimit="10" stroke-width="2.7769845610000004" stroke-dasharray=""/></g><g><g/><text fill="black" stroke="none" font-family="sans-serif" font-size="11pt" font-style="normal" font-weight="normal" text-decoration="normal" x="308.0633470833333" y="123.90251703050001" text-anchor="start" dominant-baseline="alphabetic">Administrator</text></g><path fill="none" stroke="none"/><g><path fill="white" stroke="black" paint-order="fill stroke markers" d=" M 570.7353969361667 84.69802911050002 L 683.1827880971667 84.69802911050002 L 683.1827880971667 128.8030780205 L 570.7353969361667 128.8030780205 L 570.7353969361667 84.69802911050002 Z" stroke-miterlimit="10" stroke-width="2.613632528" stroke-dasharray=""/></g><g><g/><text fill="black" stroke="none" font-family="sans-serif" font-size="11pt" font-style="normal" font-weight="normal" text-decoration="normal" x="588.4590925166667" y="112.46787472049999" text-anchor="start" dominant-baseline="alphabetic">SafeStreets</text></g></g><g><path fill="white" stroke="black" paint-order="fill stroke markers" d=" M 37 136.97067967049998 L 53.3352033 136.97067967049998 L 53.3352033 560.0524451405 L 37 560.0524451405 L 37 136.97067967049998" stroke-miterlimit="10" stroke-width="1.3612669416666667" stroke-dasharray=""/><path fill="white" stroke="black" paint-order="fill stroke markers" d=" M 342.89574543333333 199.04445221049997 L 359.2309487333333 199.04445221049997 L 359.2309487333333 519.2144368905 L 342.89574543333333 519.2144368905 L 342.89574543333333 199.04445221049997" stroke-miterlimit="10" stroke-width="1.3612669416666667" stroke-dasharray=""/><path fill="white" stroke="black" paint-order="fill stroke markers" d=" M 618.7914908666667 244.78302145049997 L 635.1266941666668 244.78302145049997 L 635.1266941666668 290.5215906905 L 618.7914908666667 290.5215906905 L 618.7914908666667 244.78302145049997" stroke-miterlimit="10" stroke-width="1.3612669416666667" stroke-dasharray=""/><path fill="white" stroke="black" paint-order="fill stroke markers" d=" M 618.7914908666667 336.2601599305 L 635.1266941666668 336.2601599305 L 635.1266941666668 381.9987291705 L 618.7914908666667 381.9987291705 L 618.7914908666667 336.2601599305" stroke-miterlimit="10" stroke-width="1.3612669416666667" stroke-dasharray=""/><path fill="white" stroke="black" paint-order="fill stroke markers" d=" M 618.7914908666667 427.7372984105 L 635.1266941666668 427.7372984105 L 635.1266941666668 473.4758676505 L 618.7914908666667 473.4758676505 L 618.7914908666667 427.7372984105" stroke-miterlimit="10" stroke-width="1.3612669416666667" stroke-dasharray=""/><g><g><rect fill="white" stroke="none" x="91.16519387166666" y="161.47348462049996" width="213.90056099" height="21.23576429"/></g><g><rect fill="white" stroke="none" x="91.16519387166666" y="177.80868792049995" width="164.90056099" height="21.23576429"/></g><text fill="black" stroke="none" font-family="sans-serif" font-size="11pt" font-style="normal" font-weight="normal" text-decoration="normal" x="93.61547436666666" y="176.17516759049994" text-anchor="start" dominant-baseline="alphabetic">Send formal request for account</text><text fill="black" stroke="none" font-family="sans-serif" font-size="11pt" font-style="normal" font-weight="normal" text-decoration="normal" x="93.61547436666666" y="192.51037089049993" text-anchor="start" dominant-baseline="alphabetic">suspension/rehabilitation</text></g><g><path fill="none" stroke="black" paint-order="fill stroke markers" d=" M 53.3352033 199.04445221049997 L 340.17321155 199.04445221049997" stroke-miterlimit="10" stroke-width="1.3612669416666667" stroke-dasharray=""/><g transform="translate(342.89574543333333,199.04445221049997) translate(-342.89574543333333,-199.04445221049997)"><path fill="black" stroke="none" paint-order="stroke fill markers" d=" M 329.28307601666666 192.23811750216663 L 342.89574543333333 199.04445221049997 L 329.28307601666666 205.8507869188333 Z"/></g></g><g><g><rect fill="white" stroke="none" x="383.060939305" y="223.54725716049998" width="211.90056099" height="21.23576429"/></g><text fill="black" stroke="none" font-family="sans-serif" font-size="11pt" font-style="normal" font-weight="normal" text-decoration="normal" x="385.5112198" y="238.24894013049996" text-anchor="start" dominant-baseline="alphabetic">Clicks "Accounts control" button</text></g><g><path fill="none" stroke="black" paint-order="fill stroke markers" d=" M 359.2309487333333 244.78302145049997 L 616.0689569833334 244.78302145049997" stroke-miterlimit="10" stroke-width="1.3612669416666667" stroke-dasharray=""/><g transform="translate(618.7914908666667,244.78302145049997) translate(-618.7914908666667,-244.78302145049997)"><path fill="black" stroke="none" paint-order="stroke fill markers" d=" M 605.17882145 237.97668674216663 L 618.7914908666667 244.78302145049997 L 605.17882145 251.5893561588333 Z"/></g></g><g><g><rect fill="white" stroke="none" x="384.060939305" y="269.28582640049996" width="209.90056099" height="21.23576429"/></g><text fill="black" stroke="none" font-family="sans-serif" font-size="11pt" font-style="normal" font-weight="normal" text-decoration="normal" x="386.5112198" y="283.98750937049994" text-anchor="start" dominant-baseline="alphabetic">Prompts Accounts control page</text></g><g><path fill="none" stroke="black" paint-order="fill stroke markers" d=" M 618.7914908666667 290.5215906905 L 361.95348261666663 290.5215906905" stroke-miterlimit="10" stroke-width="1.3612669416666667" stroke-dasharray="6.53408132"/><g transform="translate(359.2309487333333,290.5215906905) translate(-359.2309487333333,-290.5215906905)"><path fill="black" stroke="none" paint-order="stroke fill markers" d=" M 372.84361815 283.71525598216664 L 359.2309487333333 290.5215906905 L 372.84361815 297.3279253988333 Z"/></g></g><g><g><rect fill="white" stroke="none" x="445.560939305" y="315.02439564049996" width="86.90056099" height="21.23576429"/></g><text fill="black" stroke="none" font-family="sans-serif" font-size="11pt" font-style="normal" font-weight="normal" text-decoration="normal" x="448.0112198" y="329.72607861049994" text-anchor="start" dominant-baseline="alphabetic">Selects user</text></g><g><path fill="none" stroke="black" paint-order="fill stroke markers" d=" M 359.2309487333333 336.2601599305 L 616.0689569833334 336.2601599305" stroke-miterlimit="10" stroke-width="1.3612669416666667" stroke-dasharray=""/><g transform="translate(618.7914908666667,336.2601599305) translate(-618.7914908666667,-336.2601599305)"><path fill="black" stroke="none" paint-order="stroke fill markers" d=" M 605.17882145 329.45382522216664 L 618.7914908666667 336.2601599305 L 605.17882145 343.0664946388333 Z"/></g></g><g><g><rect fill="white" stroke="none" x="423.060939305" y="360.76296488049996" width="131.90056099" height="21.23576429"/></g><text fill="black" stroke="none" font-family="sans-serif" font-size="11pt" font-style="normal" font-weight="normal" text-decoration="normal" x="425.5112198" y="375.46464785049994" text-anchor="start" dominant-baseline="alphabetic">Prompts User page</text></g><g><path fill="none" stroke="black" paint-order="fill stroke markers" d=" M 618.7914908666667 381.9987291705 L 361.95348261666663 381.9987291705" stroke-miterlimit="10" stroke-width="1.3612669416666667" stroke-dasharray="6.53408132"/><g transform="translate(359.2309487333333,381.9987291705) translate(-359.2309487333333,-381.9987291705)"><path fill="black" stroke="none" paint-order="stroke fill markers" d=" M 372.84361815 375.19239446216665 L 359.2309487333333 381.9987291705 L 372.84361815 388.8050638788333 Z"/></g></g><g><g><rect fill="white" stroke="none" x="378.560939305" y="406.50153412049997" width="220.90056099" height="21.23576429"/></g><text fill="black" stroke="none" font-family="sans-serif" font-size="11pt" font-style="normal" font-weight="normal" text-decoration="normal" x="381.0112198" y="421.20321709049995" text-anchor="start" dominant-baseline="alphabetic">Clicks "Suspend/Rehabilit" button</text></g><g><path fill="none" stroke="black" paint-order="fill stroke markers" d=" M 359.2309487333333 427.7372984105 L 616.0689569833334 427.7372984105" stroke-miterlimit="10" stroke-width="1.3612669416666667" stroke-dasharray=""/><g transform="translate(618.7914908666667,427.7372984105) translate(-618.7914908666667,-427.7372984105)"><path fill="black" stroke="none" paint-order="stroke fill markers" d=" M 605.17882145 420.93096370216665 L 618.7914908666667 427.7372984105 L 605.17882145 434.5436331188333 Z"/></g></g><g><g><rect fill="white" stroke="none" x="384.060939305" y="452.2401033605" width="209.90056099" height="21.23576429"/></g><text fill="black" stroke="none" font-family="sans-serif" font-size="11pt" font-style="normal" font-weight="normal" text-decoration="normal" x="386.5112198" y="466.94178633049995" text-anchor="start" dominant-baseline="alphabetic">Prompts Accounts control page</text></g><g><path fill="none" stroke="black" paint-order="fill stroke markers" d=" M 618.7914908666667 473.4758676505 L 361.95348261666663 473.4758676505" stroke-miterlimit="10" stroke-width="1.3612669416666667" stroke-dasharray="6.53408132"/><g transform="translate(359.2309487333333,473.4758676505) translate(-359.2309487333333,-473.4758676505)"><path fill="black" stroke="none" paint-order="stroke fill markers" d=" M 372.84361815 466.66953294216665 L 359.2309487333333 473.4758676505 L 372.84361815 480.28220235883333 Z"/></g></g><g><g><rect fill="white" stroke="none" x="72.66519387166666" y="497.9786726005" width="250.90056099" height="21.23576429"/></g><text fill="black" stroke="none" font-family="sans-serif" font-size="11pt" font-style="normal" font-weight="normal" text-decoration="normal" x="75.11547436666666" y="512.6803555705" text-anchor="start" dominant-baseline="alphabetic">Suspension/rehabilitation confirmation</text></g><g><path fill="none" stroke="black" paint-order="fill stroke markers" d=" M 342.89574543333333 519.2144368905 L 56.05773718333334 519.2144368905" stroke-miterlimit="10" stroke-width="1.3612669416666667" stroke-dasharray="6.53408132"/><g transform="translate(53.3352033,519.2144368905) translate(-53.3352033,-519.2144368905)"><path fill="black" stroke="none" paint-order="stroke fill markers" d=" M 66.94787271666667 512.4081021821667 L 53.3352033 519.2144368905 L 66.94787271666667 526.0207715988333 Z"/></g></g></g><g/><g/><g/></g></svg>

<?xml version="1.0" encoding="utf-8"?>
<!-- Generator: Adobe Illustrator 16.0.0, SVG Export Plug-In . SVG Version: 6.00 Build 0)  -->
<!DOCTYPE svg PUBLIC "-//W3C//DTD SVG 1.1//EN" "http://www.w3.org/Graphics/SVG/1.1/DTD/svg11.dtd">
<svg version="1.1" id="Layer_1" xmlns="http://www.w3.org/2000/svg" xmlns:xlink="http://www.w3.org/1999/xlink" x="0px" y="0px"
	 width="691px" height="576px" viewBox="0 0 691 576" enable-background="new 0 0 691 576" xml:space="preserve">
<g>
	<rect fill="#FFFFFF" width="691" height="576"/>
</g>
<g>
	<path fill="none" stroke="#000000" stroke-width="1.3613" stroke-miterlimit="10" stroke-dasharray="12.5655,5.4451" d="
		M45.167,128.803v447.584"/>
	<path fill="none" stroke="#000000" stroke-width="1.3613" stroke-miterlimit="10" stroke-dasharray="12.5655,5.4451" d="
		M351.063,128.803v447.584"/>
	<path fill="none" stroke="#000000" stroke-width="1.3613" stroke-miterlimit="10" stroke-dasharray="12.5655,5.4451" d="
		M626.959,128.803v447.584"/>
</g>
<g>
	<g>
		<path fill="#FFFFFF" stroke="#000000" stroke-width="2.777" stroke-miterlimit="10" d="M54.479,59.705
			c0,5.143-4.169,9.311-9.312,9.311c-5.143,0-9.311-4.17-9.311-9.312c0-5.143,4.169-9.311,9.312-9.311
			c5.139,0,9.306,4.164,9.31,9.303 M45.167,69.016v19.929 M33.406,76.204h23.522 M45.167,88.945l-11.761,18.622 M45.167,88.945
			l11.761,18.622"/>
	</g>
	<g>
		<text transform="matrix(1 0 0 1 8.1675 123.9023)" font-family="'ArialMT'" font-size="11">Municipality</text>
	</g>
	<g>
		<path fill="#FFFFFF" stroke="#000000" stroke-width="2.777" stroke-miterlimit="10" d="M360.374,59.705
			c-0.002,5.143-4.173,9.309-9.315,9.307c-5.143-0.003-9.309-4.173-9.307-9.316c0.003-5.142,4.174-9.309,9.316-9.306
			c5.139,0.002,9.304,4.167,9.306,9.306 M351.063,69.016v19.929 M339.302,76.204h23.522 M351.063,88.945l-11.762,18.622
			 M351.063,88.945l11.761,18.622"/>
	</g>
	<g>
		<text transform="matrix(1 0 0 1 308.0635 123.9023)" font-family="'ArialMT'" font-size="11">Administrator</text>
	</g>
	<path d="M0,0"/>
	<g>
		<path fill="#FFFFFF" stroke="#000000" stroke-width="2.6136" stroke-miterlimit="10" d="M570.735,84.698h112.447v44.105H570.735
			V84.698z"/>
	</g>
	<g>
		<text transform="matrix(1 0 0 1 588.459 112.4678)" font-family="'ArialMT'" font-size="11">SafeStreets</text>
	</g>
</g>
<g>
	<path fill="#FFFFFF" stroke="#000000" stroke-width="1.3613" stroke-miterlimit="10" d="M37,136.971h16.335v423.082H37V136.971"/>
	<path fill="#FFFFFF" stroke="#000000" stroke-width="1.3613" stroke-miterlimit="10" d="M342.896,199.044h16.335v320.17h-16.335
		V199.044"/>
	<path fill="#FFFFFF" stroke="#000000" stroke-width="1.3613" stroke-miterlimit="10" d="M618.791,244.783h16.336v45.738h-16.336
		V244.783"/>
	<path fill="#FFFFFF" stroke="#000000" stroke-width="1.3613" stroke-miterlimit="10" d="M618.791,336.26h16.336v45.738h-16.336
		V336.26"/>
	<path fill="#FFFFFF" stroke="#000000" stroke-width="1.3613" stroke-miterlimit="10" d="M618.791,427.737h16.336v45.738h-16.336
		V427.737"/>
	<g>
		<g>
			<rect x="91.165" y="161.474" fill="#FFFFFF" width="213.9" height="21.235"/>
		</g>
		<g>
			<rect x="91.165" y="177.809" fill="#FFFFFF" width="164.901" height="21.236"/>
		</g>
		<text transform="matrix(1 0 0 1 93.6152 176.1748)" font-family="'ArialMT'" font-size="11">Send formal request for account</text>
		<text transform="matrix(1 0 0 1 93.6152 192.5107)" font-family="'ArialMT'" font-size="11">suspension/rehabilitation</text>
	</g>
	<g>
		<path fill="none" stroke="#000000" stroke-width="1.3613" stroke-miterlimit="10" d="M53.335,199.044h286.838"/>
		<g transform="translate(342.89574543333333,199.04445221049997) translate(-342.89574543333333,-199.04445221049997)">
			<path d="M329.283,192.238l13.612,6.806l-13.612,6.806V192.238z"/>
		</g>
	</g>
	<g>
		<g>
			<rect x="383.061" y="223.547" fill="#FFFFFF" width="211.901" height="21.236"/>
		</g>
		<text transform="matrix(1 0 0 1 385.5117 238.249)" font-family="'ArialMT'" font-size="11">Clicks &quot;Accounts control&quot; button</text>
	</g>
	<g>
		<path fill="none" stroke="#000000" stroke-width="1.3613" stroke-miterlimit="10" d="M359.23,244.783h256.839"/>
		<g transform="translate(618.7914908666667,244.78302145049997) translate(-618.7914908666667,-244.78302145049997)">
			<path d="M605.179,237.977l13.612,6.807l-13.612,6.806V237.977z"/>
		</g>
	</g>
	<g>
		<g>
			<rect x="384.061" y="269.286" fill="#FFFFFF" width="209.901" height="21.236"/>
		</g>
		<text transform="matrix(1 0 0 1 386.5117 283.9873)" font-family="'ArialMT'" font-size="11">Prompts Accounts control page</text>
	</g>
	<g>
		<path fill="none" stroke="#000000" stroke-width="1.3613" stroke-miterlimit="10" stroke-dasharray="6.5341" d="M618.791,290.521
			H361.953"/>
		<g transform="translate(359.2309487333333,290.5215906905) translate(-359.2309487333333,-290.5215906905)">
			<path d="M372.844,283.715l-13.613,6.806l13.613,6.807V283.715z"/>
		</g>
	</g>
	<g>
		<g>
			<rect x="445.561" y="315.024" fill="#FFFFFF" width="86.901" height="21.235"/>
		</g>
		<text transform="matrix(1 0 0 1 448.0117 329.7256)" font-family="'ArialMT'" font-size="11">Selects user</text>
	</g>
	<g>
		<path fill="none" stroke="#000000" stroke-width="1.3613" stroke-miterlimit="10" d="M359.23,336.26h256.839"/>
		<g transform="translate(618.7914908666667,336.2601599305) translate(-618.7914908666667,-336.2601599305)">
			<path d="M605.179,329.453l13.612,6.807l-13.612,6.807V329.453z"/>
		</g>
	</g>
	<g>
		<g>
			<rect x="423.061" y="360.764" fill="#FFFFFF" width="131.901" height="21.234"/>
		</g>
		<text transform="matrix(1 0 0 1 425.5117 375.4648)" font-family="'ArialMT'" font-size="11">Prompts User page</text>
	</g>
	<g>
		<path fill="none" stroke="#000000" stroke-width="1.3613" stroke-miterlimit="10" stroke-dasharray="6.5341" d="M618.791,381.998
			H361.953"/>
		<g transform="translate(359.2309487333333,381.9987291705) translate(-359.2309487333333,-381.9987291705)">
			<path d="M372.844,375.192l-13.613,6.806l13.613,6.807V375.192z"/>
		</g>
	</g>
	<g>
		<g>
			<rect x="378.561" y="406.502" fill="#FFFFFF" width="220.901" height="21.235"/>
		</g>
		<text transform="matrix(1 0 0 1 381.0117 421.2031)" font-family="'ArialMT'" font-size="11">Clicks &quot;Suspend/Rehabilit&quot; button</text>
	</g>
	<g>
		<path fill="none" stroke="#000000" stroke-width="1.3613" stroke-miterlimit="10" d="M359.23,427.737h256.839"/>
		<g transform="translate(618.7914908666667,427.7372984105) translate(-618.7914908666667,-427.7372984105)">
			<path d="M605.179,420.932l13.612,6.806l-13.612,6.807V420.932z"/>
		</g>
	</g>
	<g>
		<g>
			<rect x="384.061" y="452.24" fill="#FFFFFF" width="209.901" height="21.235"/>
		</g>
		<text transform="matrix(1 0 0 1 386.5117 466.9414)" font-family="'ArialMT'" font-size="11">Prompts Accounts control page</text>
	</g>
	<g>
		<path fill="none" stroke="#000000" stroke-width="1.3613" stroke-miterlimit="10" stroke-dasharray="6.5341" d="M618.791,473.476
			H361.953"/>
		<g transform="translate(359.2309487333333,473.4758676505) translate(-359.2309487333333,-473.4758676505)">
			<path d="M372.844,466.67l-13.613,6.806l13.613,6.807V466.67z"/>
		</g>
	</g>
	<g>
		<g>
			<rect x="72.665" y="497.979" fill="#FFFFFF" width="250.9" height="21.236"/>
		</g>
		<text transform="matrix(1 0 0 1 75.1152 512.6807)" font-family="'ArialMT'" font-size="11">Suspension/rehabilitation confirmation</text>
	</g>
	<g>
		<path fill="none" stroke="#000000" stroke-width="1.3613" stroke-miterlimit="10" stroke-dasharray="6.5341" d="M342.896,519.215
			H56.058"/>
		<g transform="translate(53.3352033,519.2144368905) translate(-53.3352033,-519.2144368905)">
			<path d="M66.948,512.408l-13.613,6.807l13.613,6.806V512.408z"/>
		</g>
	</g>
</g>
</svg>
